img/columns.svg

<svg width="32" height="35" viewBox="0 0 32 35" fill="none" xmlns="http://www.w3.org/2000/svg">
<path d="M31.6662 31.6176H0.197851C0.0885798 31.6176 0 31.7102 0 31.8245V34.5289C0 34.6432 0.0885798 34.7359 0.197851 34.7359H31.6662C31.7755 34.7359 31.8641 34.6432 31.8641 34.5289V31.8245C31.8641 31.7102 31.7755 31.6176 31.6662 31.6176Z" fill="black"/>
<path d="M30.3685 29.5806H1.49164C1.38237 29.5806 1.29379 29.6732 1.29379 29.7875V31.1387C1.29379 31.253 1.38237 31.3457 1.49164 31.3457H30.3685C30.4778 31.3457 30.5664 31.253 30.5664 31.1387V29.7875C30.5664 29.6732 30.4778 29.5806 30.3685 29.5806Z" fill="black"/>
<path d="M29.0844 3.11218H2.85917C2.74776 3.11218 2.65744 3.20665 2.65744 3.32318V4.44311C2.65744 4.55964 2.74776 4.65411 2.85917 4.65411H29.0844C29.1959 4.65411 29.2862 4.55964 29.2862 4.44311V3.32318C29.2862 3.20665 29.1959 3.11218 29.0844 3.11218Z" fill="black"/>
<path d="M2.46736 2.79981C2.49645 2.84241 2.54301 2.86879 2.59344 2.86879H29.3483C29.3987 2.86879 29.4452 2.84241 29.4743 2.79981L31.0591 0.35099C31.1561 0.202885 31.0533 0 30.8807 0H1.05911C0.886473 0 0.785607 0.200856 0.880654 0.35099L2.46542 2.79981H2.46736Z" fill="black"/>
<path d="M4.2461 29.3127H10.4377C10.6763 29.3127 10.8703 29.1098 10.8703 28.8603C10.8703 28.6107 10.6763 28.4078 10.4377 28.4078H4.2461C4.00751 28.4078 3.81354 28.6107 3.81354 28.8603C3.81354 29.1098 4.00751 29.3127 4.2461 29.3127Z" fill="black"/>
<path d="M4.78339 27.71C4.78339 27.9596 4.97736 28.1624 5.21595 28.1624H9.4213C9.65989 28.1624 9.85386 27.9596 9.85386 27.71C9.85386 27.4605 9.65989 27.2576 9.4213 27.2576H5.21595C4.97736 27.2576 4.78339 27.4605 4.78339 27.71Z" fill="black"/>
<path d="M10.847 5.33183C10.847 5.08228 10.653 4.87939 10.4145 4.87939H4.22281C3.98423 4.87939 3.79025 5.08228 3.79025 5.33183C3.79025 5.58138 3.98423 5.78426 4.22281 5.78426H10.4145C10.653 5.78426 10.847 5.58138 10.847 5.33183Z" fill="black"/>
<path d="M9.43296 6.02966H5.22761C4.98902 6.02966 4.79504 6.23255 4.79504 6.4821C4.79504 6.73164 4.98902 6.93453 5.22761 6.93453H9.43296C9.67155 6.93453 9.86552 6.73164 9.86552 6.4821C9.86552 6.23255 9.67155 6.02966 9.43296 6.02966Z" fill="black"/>
<path d="M9.36119 27.0283C9.49891 27.0283 9.60754 26.9106 9.60366 26.7665L9.08963 7.4296C9.08575 7.28149 8.96936 7.16382 8.82776 7.16382H5.72224C5.5787 7.16382 5.46232 7.28352 5.46038 7.43163L5.05691 26.7686C5.05497 26.9106 5.1636 27.0283 5.29938 27.0283H9.36119ZM8.37386 7.89015C8.4437 7.89015 8.49995 7.94695 8.50189 8.01999L8.6687 26.1315C8.6687 26.2045 8.61439 26.2634 8.54456 26.2654C8.47473 26.2654 8.41848 26.2086 8.41654 26.1356L8.24972 8.02405C8.24972 7.95101 8.30403 7.89217 8.37386 7.89015ZM7.19838 8.02202C7.19838 7.94898 7.25463 7.89015 7.32447 7.89015C7.3943 7.89015 7.45055 7.94898 7.45055 8.02202V26.1335C7.45055 26.2066 7.3943 26.2654 7.32447 26.2654C7.25463 26.2654 7.19838 26.2066 7.19838 26.1335V8.02405V8.02202ZM6.14704 8.02202C6.14704 7.94898 6.20524 7.89015 6.27507 7.89217C6.3449 7.89217 6.40115 7.95304 6.39921 8.02608L6.23239 26.1376C6.23239 26.2106 6.1742 26.2695 6.10437 26.2674C6.03454 26.2654 5.97829 26.2066 5.98022 26.1335L6.14704 8.02202Z" fill="black"/>
<path d="M12.8585 29.3127H19.0502C19.2888 29.3127 19.4827 29.1098 19.4827 28.8603C19.4827 28.6107 19.2888 28.4078 19.0502 28.4078H12.8585C12.6199 28.4078 12.426 28.6107 12.426 28.8603C12.426 29.1098 12.6199 29.3127 12.8585 29.3127Z" fill="black"/>
<path d="M13.3958 27.71C13.3958 27.9596 13.5898 28.1624 13.8284 28.1624H18.0338C18.2723 28.1624 18.4663 27.9596 18.4663 27.71C18.4663 27.4605 18.2723 27.2576 18.0338 27.2576H13.8284C13.5898 27.2576 13.3958 27.4605 13.3958 27.71Z" fill="black"/>
<path d="M19.4594 5.33183C19.4594 5.08228 19.2655 4.87939 19.0269 4.87939H12.8352C12.5967 4.87939 12.4027 5.08228 12.4027 5.33183C12.4027 5.58138 12.5967 5.78426 12.8352 5.78426H19.0269C19.2655 5.78426 19.4594 5.58138 19.4594 5.33183Z" fill="black"/>
<path d="M18.0454 6.02966H13.84C13.6014 6.02966 13.4075 6.23255 13.4075 6.4821C13.4075 6.73164 13.6014 6.93453 13.84 6.93453H18.0454C18.284 6.93453 18.4779 6.73164 18.4779 6.4821C18.4779 6.23255 18.284 6.02966 18.0454 6.02966Z" fill="black"/>
<path d="M17.9736 27.0283C18.1113 27.0283 18.22 26.9106 18.2161 26.7665L17.7021 7.4296C17.6982 7.28149 17.5818 7.16382 17.4402 7.16382H14.3347C14.1911 7.16382 14.0747 7.28352 14.0728 7.43163L13.6693 26.7686C13.6674 26.9106 13.776 27.0283 13.9118 27.0283H17.9736ZM16.9863 7.89015C17.0561 7.89015 17.1124 7.94695 17.1143 8.01999L17.2811 26.1315C17.2811 26.2045 17.2268 26.2634 17.157 26.2654C17.0872 26.2654 17.0309 26.2086 17.029 26.1356L16.8621 8.02405C16.8621 7.95101 16.9165 7.89217 16.9863 7.89015ZM15.8108 8.02202C15.8108 7.94898 15.8671 7.89015 15.9369 7.89015C16.0067 7.89015 16.063 7.94898 16.063 8.02202V26.1335C16.063 26.2066 16.0067 26.2654 15.9369 26.2654C15.8671 26.2654 15.8108 26.2066 15.8108 26.1335V8.02405V8.02202ZM14.7595 8.02202C14.7595 7.94898 14.8177 7.89015 14.8875 7.89217C14.9573 7.89217 15.0136 7.95304 15.0116 8.02608L14.8448 26.1376C14.8448 26.2106 14.7866 26.2695 14.7168 26.2674C14.647 26.2654 14.5907 26.2066 14.5927 26.1335L14.7595 8.02202Z" fill="black"/>
<path d="M21.5078 29.3127H27.6995C27.9381 29.3127 28.132 29.1098 28.132 28.8603C28.132 28.6107 27.9381 28.4078 27.6995 28.4078H21.5078C21.2692 28.4078 21.0753 28.6107 21.0753 28.8603C21.0753 29.1098 21.2692 29.3127 21.5078 29.3127Z" fill="black"/>
<path d="M22.0451 27.71C22.0451 27.9596 22.2391 28.1624 22.4777 28.1624H26.6831C26.9216 28.1624 27.1156 27.9596 27.1156 27.71C27.1156 27.4605 26.9216 27.2576 26.6831 27.2576H22.4777C22.2391 27.2576 22.0451 27.4605 22.0451 27.71Z" fill="black"/>
<path d="M28.1087 5.33183C28.1087 5.08228 27.9148 4.87939 27.6762 4.87939H21.4845C21.2459 4.87939 21.052 5.08228 21.052 5.33183C21.052 5.58138 21.2459 5.78426 21.4845 5.78426H27.6762C27.9148 5.78426 28.1087 5.58138 28.1087 5.33183Z" fill="black"/>
<path d="M26.6947 6.02966H22.4893C22.2507 6.02966 22.0568 6.23255 22.0568 6.4821C22.0568 6.73164 22.2507 6.93453 22.4893 6.93453H26.6947C26.9333 6.93453 27.1272 6.73164 27.1272 6.4821C27.1272 6.23255 26.9333 6.02966 26.6947 6.02966Z" fill="black"/>
<path d="M26.6229 27.0283C26.7606 27.0283 26.8693 26.9106 26.8654 26.7665L26.3513 7.4296C26.3475 7.28149 26.2311 7.16382 26.0895 7.16382H22.984C22.8404 7.16382 22.724 7.28352 22.7221 7.43163L22.3186 26.7686C22.3167 26.9106 22.4253 27.0283 22.5611 27.0283H26.6229ZM25.6356 7.89015C25.7054 7.89015 25.7617 7.94695 25.7636 8.01999L25.9304 26.1315C25.9304 26.2045 25.8761 26.2634 25.8063 26.2654C25.7365 26.2674 25.6802 26.2086 25.6783 26.1356L25.5114 8.02405C25.5114 7.95101 25.5658 7.89217 25.6356 7.89015ZM24.4601 8.02202C24.4601 7.94898 24.5164 7.89015 24.5862 7.89015C24.656 7.89015 24.7123 7.94898 24.7123 8.02202V26.1335C24.7123 26.2066 24.656 26.2654 24.5862 26.2654C24.5164 26.2654 24.4601 26.2066 24.4601 26.1335V8.02405V8.02202ZM23.4088 8.02202C23.4088 7.94898 23.467 7.89015 23.5368 7.89217C23.6066 7.89217 23.6629 7.95304 23.6609 8.02608L23.4941 26.1376C23.4941 26.2106 23.4359 26.2695 23.3661 26.2674C23.2963 26.2674 23.24 26.2066 23.2419 26.1335L23.4088 8.02202Z" fill="black"/>
</svg>

<svg width="32" height="35" fill="none" xmlns="http://www.w3.org/2000/svg"><path d="M31.666 31.618H.198a.203.203 0 0 0-.198.207v2.704c0 .114.089.207.198.207h31.468c.11 0 .198-.093.198-.207v-2.705a.203.203 0 0 0-.198-.206zM30.369 29.58H1.492a.203.203 0 0 0-.198.208v1.35c0 .115.088.208.198.208h28.877c.109 0 .197-.093.197-.207v-1.351a.203.203 0 0 0-.197-.207zM29.084 3.112H2.86a.207.207 0 0 0-.202.211v1.12c0 .117.09.211.202.211h26.225a.207.207 0 0 0 .202-.21v-1.12a.207.207 0 0 0-.202-.212zM2.467 2.8c.03.042.076.069.126.069h26.755c.05 0 .097-.027.126-.07L31.06.352C31.156.203 31.053 0 30.881 0H1.059C.886 0 .786.2.881.351L2.465 2.8h.002zM4.246 29.313h6.192a.443.443 0 0 0 .432-.453.443.443 0 0 0-.432-.452H4.246a.443.443 0 0 0-.432.452c0 .25.194.453.432.453zM4.783 27.71c0 .25.194.452.433.452h4.205a.443.443 0 0 0 .433-.452.443.443 0 0 0-.433-.452H5.216a.443.443 0 0 0-.433.452zM10.847 5.332a.443.443 0 0 0-.432-.453H4.223a.443.443 0 0 0-.433.453c0 .25.194.452.433.452h6.192a.443.443 0 0 0 .432-.452zM9.433 6.03H5.228a.443.443 0 0 0-.433.452c0 .25.194.453.433.453h4.205a.443.443 0 0 0 .433-.453.443.443 0 0 0-.433-.452zM9.361 27.028a.248.248 0 0 0 .243-.261L9.09 7.43a.268.268 0 0 0-.262-.266H5.722c-.143 0-.26.12-.262.268l-.403 19.337c-.002.142.107.26.242.26h4.062zM8.374 7.89a.13.13 0 0 1 .128.13l.167 18.111a.13.13 0 0 1-.124.134.13.13 0 0 1-.128-.13L8.25 8.025a.13.13 0 0 1 .124-.134zm-1.176.132c0-.073.057-.132.126-.132.07 0 .127.059.127.132v18.111a.129.129 0 0 1-.127.132.129.129 0 0 1-.126-.131V8.022zm-1.051 0c0-.073.058-.132.128-.13.07 0 .126.061.124.134l-.167 18.112a.127.127 0 0 1-.128.13.129.129 0 0 1-.124-.134l.167-18.112zM12.858 29.313h6.192a.443.443 0 0 0 .433-.453.443.443 0 0 0-.433-.452h-6.192a.443.443 0 0 0-.432.452c0 .25.194.453.432.453zM13.396 27.71c0 .25.194.452.432.452h4.206a.443.443 0 0 0 .432-.452.443.443 0 0 0-.432-.452h-4.206a.443.443 0 0 0-.432.452zM19.46 5.332a.443.443 0 0 0-.433-.453h-6.192a.443.443 0 0 0-.432.453c0 .25.194.452.432.452h6.192a.443.443 0 0 0 .432-.452zM18.045 6.03H13.84a.443.443 0 0 0-.432.452c0 .25.193.453.432.453h4.205a.443.443 0 0 0 .433-.453.443.443 0 0 0-.433-.452zM17.974 27.028a.248.248 0 0 0 .242-.261L17.702 7.43a.268.268 0 0 0-.262-.266h-3.105c-.144 0-.26.12-.262.268l-.404 19.337c-.002.142.107.26.243.26h4.062zM16.986 7.89a.13.13 0 0 1 .128.13l.167 18.111a.13.13 0 0 1-.124.134.13.13 0 0 1-.128-.13l-.167-18.111a.13.13 0 0 1 .124-.134zm-1.175.132c0-.073.056-.132.126-.132s.126.059.126.132v18.111a.129.129 0 0 1-.126.132.129.129 0 0 1-.126-.131V8.022zm-1.052 0c0-.073.059-.132.128-.13.07 0 .127.061.125.134l-.167 18.112a.127.127 0 0 1-.128.13.129.129 0 0 1-.124-.134l.166-18.112zM21.508 29.313H27.7a.443.443 0 0 0 .432-.453.443.443 0 0 0-.433-.452h-6.191a.443.443 0 0 0-.433.452c0 .25.194.453.433.453zM22.045 27.71c0 .25.194.452.433.452h4.205a.443.443 0 0 0 .433-.452.443.443 0 0 0-.433-.452h-4.205a.443.443 0 0 0-.433.452zM28.109 5.332a.443.443 0 0 0-.433-.453h-6.191a.443.443 0 0 0-.433.453c0 .25.194.452.433.452h6.191a.443.443 0 0 0 .433-.452zM26.695 6.03h-4.206a.443.443 0 0 0-.432.452c0 .25.194.453.432.453h4.206a.443.443 0 0 0 .432-.453.443.443 0 0 0-.432-.452zM26.623 27.028a.248.248 0 0 0 .242-.261L26.351 7.43a.267.267 0 0 0-.261-.266h-3.106c-.144 0-.26.12-.262.268l-.403 19.337c-.002.142.106.26.242.26h4.062zM25.636 7.89a.13.13 0 0 1 .128.13l.166 18.111a.13.13 0 0 1-.124.134c-.07.002-.126-.056-.128-.13l-.167-18.111a.13.13 0 0 1 .125-.134zm-1.176.132c0-.073.056-.132.126-.132s.126.059.126.132v18.111a.129.129 0 0 1-.126.132.129.129 0 0 1-.126-.131V8.022zm-1.051 0c0-.073.058-.132.128-.13.07 0 .126.061.124.134l-.167 18.112a.127.127 0 0 1-.128.13.128.128 0 0 1-.124-.134l.167-18.112z" fill="#000"/></svg>
